!!!OTL: 92. Andreas Hofer (♱ 1809).
!!!COM: Ludw. Berger
!!!ODT: 1819
!!!ARE: Europa, Mitteleuropa, Deutschland
!!!SCT: B0092
!!!TXL: @@DE
!!!YEM: Copyright 1995, estate of Helmut Schaffrath.
**kern	**text
*ICvox	*
*Ivox	*
*M4/4	*
*met(c)	*
*clefG2	*
*k[]	*
*a:	*
!LO:TX:a:t=Mäßig.	!
{8e	Als
8e	der
=1	=1
4a	Sandwirth
4a	.
4a	von
4a	Paſ-
=2	=2
8ccL	-ſei-
8bJ	.
8a	-er
8r}	.
{4.cc	Jn-
8b	-ſpruck
=3	=3
4.a	hat
8cc	mit
4.b/	Sturm
8a	ge-
=4	=4
8gL	-nom-
8f#J	.
4e	-men,
4r}	.
{8e	die
8e	Stu-
=5	=5
4a	-den-
4a	-ten,
4a	ihm
4a	ʒur
=6	=6
8ccL	Fei-
8bJ	.
8a	-er,
8r}	.
{4.cc	mit
8b	den
=7	=7
4.a	Gei-
8cc	-gen
4.b/	Mit-
8a	-tags
=8	=8
8gL	kom-
8f#J	.
4e	-men,
4r}	.
{8e	lau-
8f#X	-fen
=9	=9
4g	al-
4g	-le
4g	aus
8gL	der
8aJ	.
=10	=10
8bL	Leh-
8aJ	.
4g}	-re,
{4.b	ihm
8cc#	ein
=11	=11
4dd	Hoch
4dd	Vi-
4dd	-vat
4dd	ʒu
=12	=12
8ffL	brin-
8eeJ	.
4dd}	-gen,
{4.dd^	wol-
8dd	-len
=13	=13
4dd	ihm
4dd	ʒu
4dd	ſei-
4dd	-ner
=14	=14
8ffL	Eh-
8eeJ	.
4dd}	-re
{4.ff	ſei-
8ff	-ne
=15	=15
4ff	Hel-
4ee	-den-
4dd	-tha-
4cc	-ten
=16	=16
1b	ſin-
=17	=17
2a	-gen.
4r}	.
==	==
!!!Ag: Helden -, Ehren -, Gedaechtnis -, Kriegs - Lied
!!!GTL: Helden- und Ehrengedächtnißlieder
!!!ONB: ESAC (Essen Associative Code) Database: BOEHME
!!!AMT: simple quadruple
!!!AIN: vox
!!!EED: Helmut Schaffrath
!!!EEV: 1.0
!!@@COMMENT:"Das Gedicht iſt von Max v. Schenkendorf. [...] Die Melodie von L. Berger iſt 1819 komponirt (ſ. Rellſtab, Biographie von Berger. Berlin
!!1846, S. 103.)"
!!@@END:
!!Text: Max v. Schenkendorf
!!!URL-scan: https://archive.org/details/BoehmeVtLieder1895/page/n101/mode/2up
!!!ENC: Anna Maria Matuszewska
!!!EEV: 2024/17/06
*-	*-
